X:57 
T: Igyunk itt, mert van mit...
K: F
M: 2/4
L: 1/4
g/d/g | g/d/g | 
aa | gf | ed | 
g/a/g | c/d/c | 
dd | cB | AG | 

